img/ui/icons/edit.svg.svg

<svg width="24" height="24" viewBox="0 0 24 24" fill="none" xmlns="http://www.w3.org/2000/svg">
<path d="M20.9524 3.04797C20.2811 2.37747 19.3711 2.00085 18.4224 2.00085C17.4736 2.00085 16.5636 2.37747 15.8924 3.04797L3.94036 15C3.53389 15.406 3.24827 15.917 3.11536 16.476L2.02036 21.078C1.99071 21.2026 1.99349 21.3328 2.02843 21.4561C2.06337 21.5793 2.12931 21.6916 2.21996 21.7821C2.31061 21.8727 2.42295 21.9385 2.54626 21.9733C2.66957 22.0081 2.79974 22.0108 2.92436 21.981L7.52536 20.885C8.08466 20.7522 8.59604 20.4666 9.00236 20.06L20.9524 8.10997C21.6229 7.43871 21.9995 6.52874 21.9995 5.57997C21.9995 4.6312 21.6229 3.72123 20.9524 3.04997M16.9524 4.10997C17.1454 3.91693 17.3746 3.7638 17.6268 3.65932C17.879 3.55485 18.1494 3.50108 18.4224 3.50108C18.6954 3.50108 18.9657 3.55485 19.2179 3.65932C19.4701 3.7638 19.6993 3.91693 19.8924 4.10997C20.0854 4.30301 20.2385 4.53219 20.343 4.78441C20.4475 5.03664 20.5012 5.30697 20.5012 5.57997C20.5012 5.85297 20.4475 6.12331 20.343 6.37553C20.2385 6.62775 20.0854 6.85693 19.8924 7.04997L19.0004 7.93897L16.0604 4.99997L16.9524 4.10997ZM15.0004 6.06197L17.9404 8.99997L7.94036 19C7.73036 19.21 7.46636 19.357 7.17736 19.426L3.76136 20.24L4.57436 16.824C4.64336 16.534 4.79136 16.27 5.00136 16.06L15.0004 6.06197Z" fill="black"/>
</svg>

<svg width="24" height="24" fill="none" xmlns="http://www.w3.org/2000/svg"><path d="M20.952 3.048a3.58 3.58 0 0 0-5.06 0L3.94 15a3.1 3.1 0 0 0-.825 1.476L2.02 21.078a.75.75 0 0 0 .904.903l4.601-1.096a3.1 3.1 0 0 0 1.477-.825l11.95-11.95a3.58 3.58 0 0 0 0-5.06m-4 1.06a2.079 2.079 0 1 1 2.94 2.94L19 7.939 16.06 5l.892-.89ZM15 6.062 17.94 9l-10 10c-.21.21-.474.357-.763.426l-3.416.814.813-3.416c.07-.29.217-.554.427-.764l10-9.998Z" fill="#000"/></svg>
